X:388
T: Zehenlied (4-87), S. 113
N: P0658
O: Lothringen
S: PINCK, Louis: Verklingende Weisen Bd 4, Kassel 1939]
R: ???]
M: 2/2
L: 1/16
K: F
C2 | F4G2B2A4AG3 | F8z4
F2G2 | A4c4c3cB2A2 | G4
G2A2B4A4 | G8z4
c2c2 | G4F2F2G4
c2c2 | G4F2F2G4
c2c2 | A3AG2C2F4
G2B2 | A4G3EF4z2

@@@ Tune index: 7938
